app/assets/images/payment_icons/indexo.svg

<svg width="38" height="24" viewBox="0 0 38 24" xmlns="http://www.w3.org/2000/svg" role="img" aria-labelledby="pi-indexo">
  <title id="pi-indexo">Indexo</title>
<rect width="38" height="24" fill="#F9EB00"/>
<path d="M34.418 6H36.334V7.91605H35.5793V6.71462H34.418V6Z" fill="black"/>
<path d="M5.59063 13.7132H4.83594V9.03809H5.59063V13.7132Z" fill="black"/>
<path d="M11.975 13.7132H11.2938L8.68577 10.3304L8.68243 13.7132H7.92773V9.03809H8.60896L11.2203 12.4209V9.03809H11.975V13.7132Z" fill="black"/>
<path d="M33.1982 11.3755C33.1982 12.7714 32.1864 13.7999 30.7505 13.7999C29.3146 13.7999 28.3027 12.7714 28.3027 11.3755C28.3027 9.97969 29.3146 8.95117 30.7505 8.95117C32.1864 8.95117 33.1982 9.97969 33.1982 11.3755ZM29.0942 11.3755C29.0942 12.384 29.7954 13.0753 30.7505 13.0753C31.7055 13.0753 32.4068 12.384 32.4068 11.3755C32.4068 10.3671 31.7055 9.67581 30.7505 9.67581C29.7954 9.67581 29.0942 10.3671 29.0942 11.3755Z" fill="black"/>
<path d="M24.2554 9.03809H23.3438L24.9366 11.3289L23.2773 13.7132H24.1652L25.3841 11.9133L26.593 13.7132H27.5046L24.2554 9.03809Z" fill="black"/>
<path d="M26.1593 10.8758L27.4423 9.03809H26.5507L25.7207 10.2655L26.1593 10.8758Z" fill="black"/>
<path d="M15.3682 9.03809H13.8184V9.75271H15.3682C16.4668 9.75271 17.0045 10.4239 17.0045 11.3756C17.0045 12.3274 16.4668 12.9986 15.3682 12.9986H13.8184V13.7132H15.3682C16.8308 13.7132 17.7959 12.7848 17.7959 11.3756C17.7959 9.96643 16.8308 9.03809 15.3682 9.03809Z" fill="black"/>
<path d="M22.2197 9.03809H18.9883V9.74603H22.2197V9.03809Z" fill="black"/>
<path d="M21.9556 11.0049H19.25V11.7128H21.9556V11.0049Z" fill="black"/>
<path d="M22.2616 13.0049H18.9883V13.7128H22.2616V13.0049Z" fill="black"/>
</svg>

<svg width="38" height="24" viewBox="0 0 38 24" xmlns="http://www.w3.org/2000/svg" role="img" aria-labelledby="pi-indexo"><title id="pi-indexo">Indexo</title><path fill="#F9EB00" d="M0 0h38v24H0z"/><path d="M34.418 6h1.916v1.916h-.755V6.715h-1.161V6zM5.59 13.713h-.754V9.038h.755v4.675zM11.975 13.713h-.681L8.686 10.33l-.004 3.383h-.754V9.038h.681l2.611 3.383V9.038h.755v4.675zM33.198 11.376c0 1.395-1.012 2.424-2.448 2.424-1.435 0-2.447-1.029-2.447-2.425 0-1.395 1.012-2.424 2.447-2.424 1.436 0 2.448 1.029 2.448 2.425zm-4.104 0c0 1.008.701 1.7 1.656 1.7.956 0 1.657-.692 1.657-1.7 0-1.009-.701-1.7-1.656-1.7-.956 0-1.657.691-1.657 1.7zM24.255 9.038h-.911l1.593 2.29-1.66 2.385h.888l1.22-1.8 1.208 1.8h.912l-3.25-4.675zM26.16 10.876l1.282-1.838h-.891l-.83 1.227.438.61zM15.368 9.038h-1.55v.715h1.55c1.099 0 1.636.67 1.636 1.623 0 .951-.537 1.623-1.636 1.623h-1.55v.714h1.55c1.463 0 2.428-.928 2.428-2.337 0-1.41-.965-2.338-2.428-2.338zM22.22 9.038h-3.232v.708h3.232v-.708zM21.956 11.005H19.25v.708h2.706v-.708zM22.262 13.005h-3.274v.708h3.274v-.708z" fill="#000"/></svg>
